packages/icons/svg/Fill/navigation-2.svg

<svg fill="none" height="24" viewBox="0 0 24 24" width="24" xmlns="http://www.w3.org/2000/svg"><path clip-rule="evenodd" d="m13.667 22.0002c-.021 0-.041-.001-.061-.002-.452-.027-.829-.355-.919-.799l-1.538-7.567c-.08-.394-.387-.701-.781-.781l-7.56702-1.539c-.444-.089-.772-.466-.799-.918-.027-.45304.252-.86704.682-1.00904l16.00002-5.33301c.359-.122.755-.028 1.023.241.268.268.361.664.242 1.023l-5.334 16.00005c-.136.411-.52.684-.948.684" fill="#6b7280" fill-rule="evenodd"/></svg>

<svg width="24" height="24" viewBox="0 0 24 24" fill="none" xmlns="http://www.w3.org/2000/svg">
<g id="Icon/Fill/navigation-2">
<path id="Mask" fill-rule="evenodd" clip-rule="evenodd" d="M13.667 22C13.646 22 13.626 21.999 13.606 21.998C13.154 21.971 12.777 21.643 12.687 21.199L11.149 13.632C11.069 13.238 10.762 12.931 10.368 12.851L2.80104 11.312C2.35704 11.223 2.02904 10.846 2.00204 10.394C1.97504 9.941 2.25404 9.527 2.68404 9.385L18.684 4.052C19.043 3.93 19.439 4.024 19.707 4.293C19.975 4.561 20.068 4.957 19.949 5.316L14.615 21.316C14.479 21.727 14.095 22 13.667 22Z" fill="#000000"/>
</g>
</svg>
